X:19
T:Dis-nous les signes de l'esprit - E216
C:J. Akepsimas
M:4/4
L:1/8
K:G
"Stance"GG2G AGFE|F8|EE2E GGFE|(D2C2) B,4|A,A,2B, CDEF|G8|EE2F GFGA|A4 A4||
"Couplets"B,2CD GFED|D2A,4 A,B,|[M:2/4]C2DA,|[M:4/4]B,6zB,|EDEF G2FG|A2GF E4|[M:2/4]D3B,|[M:4/4]EDEF G2FG|
A2GF E4|D4|:"Refrain"zDGA|BBBA c2B2|zDGA B3c|[1B2A2 A4:|[2B2A2 G4-|G6z2||
